HTML/assets/group-7.svg

<?xml version="1.0" encoding="UTF-8"?>
<svg width="81px" height="70px" viewBox="0 0 81 70" version="1.1" xmlns="http://www.w3.org/2000/svg" xmlns:xlink="http://www.w3.org/1999/xlink">
    <!-- Generator: sketchtool 49 (51002) - http://www.bohemiancoding.com/sketch -->
    <title>F8340169-7CB1-4D43-8372-1EF0F9BAB865</title>
    <desc>Created with sketchtool.</desc>
    <defs></defs>
    <g id="💻-Desktop-Web" stroke="none" stroke-width="1" fill="none" fill-rule="evenodd">
        <g id="1.1.Home-Page" transform="translate(-280.000000, -1679.000000)">
            <g id="Group-7" transform="translate(280.000000, 1679.000000)">
                <path d="M78.9121798,18.0176706 L62.5214348,1.61091192 C61.483188,0.571650787 60.1045699,0 58.6368613,0 C57.168772,0 55.7901539,0.571650787 54.7522879,1.61091192 L50.9000764,5.46650593 C50.3084242,6.05911725 49.8858155,6.75729341 49.6196863,7.50005833 L31.5990423,4.26946918 C31.5975194,4.26946918 31.5959965,4.26946918 31.5944736,4.26946918 C23.4921892,2.65893836 15.5802691,7.93184523 13.9458014,16.0450943 L13.1142902,20.1716508 C12.1967344,24.7299942 15.1549953,29.183916 19.7073666,30.1038927 C24.2612609,31.0212016 28.7123584,28.061575 29.6299142,23.5032316 L30.1385676,20.979965 L38.2202926,21.6869065 L63.1488754,46.64175 C63.923658,47.4172895 63.923658,48.6783512 63.1488754,49.4538907 C62.3756157,50.2279059 61.1146428,50.2294303 60.3394794,49.4538907 L50.094074,39.1984756 C49.380208,38.4839121 48.2231739,38.4839121 47.5093079,39.1984756 C46.7969647,39.9115147 46.7969647,41.0696792 47.5093079,41.7842427 L57.7562362,52.0411822 C58.1312538,52.4161851 58.3379894,52.9150457 58.3379894,53.4462998 C58.3379894,53.9779351 58.1312538,54.4767956 57.7562362,54.8517986 C56.9814536,55.6273381 55.7204806,55.6273381 54.9468402,54.8517986 L44.7014348,44.5963834 C43.9875687,43.8818199 42.8290118,43.8818199 42.1166686,44.5963834 C41.4028026,45.3109469 41.4028026,46.4691114 42.1166686,47.1836749 L52.362074,57.43909 C53.1368566,58.2146296 53.1368566,59.4756912 52.362074,60.2512308 C51.9874371,60.6262337 51.4875405,60.8331713 50.9583278,60.8331713 C50.4272115,60.8331713 49.9276957,60.6262337 49.552678,60.2512308 L39.3072726,49.9958157 C38.5934066,49.2812522 37.4363725,49.2812522 36.7225065,49.9958157 C36.0086404,50.7103792 36.0086404,51.8685437 36.7225065,52.5815827 L46.9679119,62.8385223 C47.7426945,63.6140618 47.7426945,64.8751235 46.9679119,65.650663 C46.1946522,66.4246782 44.9336792,66.4262026 44.1600388,65.650663 L3.12016569,24.5706941 C2.40629965,23.8561307 1.24926557,23.8561307 0.53539953,24.5706941 C-0.17846651,25.2852576 -0.17846651,26.4434221 0.53539953,27.1579856 L10.5325699,37.1649232 L7.66073443,40.0395645 C6.72071563,40.9801206 6.20178261,42.2324169 6.20178261,43.5632199 C6.20178261,44.8955473 6.72071563,46.1474626 7.66073443,47.0883998 L8.5977074,48.0262882 C9.42008108,48.8494653 10.4788872,49.3479448 11.6210729,49.4611316 C11.7341492,50.6044332 12.2325229,51.6646549 13.0548966,52.4863076 L13.9918696,53.4257204 C14.8351833,54.2698581 15.9103608,54.7462337 17.0140928,54.8563718 C17.1252656,56.0011977 17.6251622,57.0625627 18.4490588,57.8857398 L19.3860317,58.8236282 C20.2084054,59.6468054 21.2672115,60.1468093 22.4078743,60.2584717 C22.5209506,61.4017733 23.0208472,62.4619949 23.841698,63.2851721 L24.7801939,64.2230605 C25.7499095,65.1952479 27.0257309,65.6803889 28.3004101,65.6803889 C29.5750893,65.6803889 30.8493878,65.1952479 31.8206263,64.2230605 L34.6924618,61.3484192 L41.5752726,68.2379545 C42.6401704,69.3038927 44.0576228,69.8919308 45.5641657,69.8919308 C47.0707086,69.8919308 48.4877803,69.3038927 49.552678,68.2379545 C50.5627509,67.2272759 51.1353666,65.8991406 51.1932374,64.4806844 C52.6122127,64.422376 53.9371481,63.8492009 54.9468402,62.8385223 C55.9881328,61.7965934 56.5295288,60.4463543 56.5858766,59.0797278 C57.9511692,59.0229438 59.3000905,58.4810189 60.3410024,57.43909 C61.380772,56.3983045 61.923691,55.0484464 61.9785159,53.6802955 C63.3453314,53.6235116 64.6942526,53.0815866 65.7336416,52.0411822 C67.9334912,49.8380401 67.9334912,46.2560762 65.7336416,44.0544585 L63.2010353,41.5193778 L78.9121798,25.7944079 C81.0537779,23.6491931 81.0537779,20.1613611 78.9121798,18.0176706 Z M10.2455006,44.5011083 C9.7296134,43.984336 9.7296134,43.1432471 10.2455006,42.6268559 L12.9387744,39.9309508 L15.7481704,42.7427105 L13.0548966,45.4389967 C12.5390094,45.9553879 11.6987415,45.9553879 11.1824736,45.4389967 L10.2455006,44.5011083 Z M15.6396627,49.9005405 C15.1222526,49.3822438 15.1222526,48.5426794 15.6396627,48.0262882 L18.3314136,45.330383 L21.1408096,48.1421427 L18.4490588,50.8384289 C17.9331716,51.3548201 17.0929036,51.3548201 16.5766357,50.8384289 L15.6396627,49.9005405 Z M21.032302,55.2984484 C20.7825441,55.0484464 20.6443396,54.7161268 20.6443396,54.3620844 C20.6443396,54.0091853 20.7825441,53.6757223 21.032302,53.4257204 L23.7255758,50.7294342 L26.5349718,53.541575 L23.841698,56.2378612 C23.3258108,56.7542524 22.4855429,56.7542524 21.969275,56.2378612 L21.032302,55.2984484 Z M29.2358602,61.635769 C28.719973,62.1536846 27.8797051,62.1521602 27.3634371,61.635769 L26.4264642,60.6978806 C25.910577,60.1811083 25.910577,59.3400194 26.4264642,58.8236282 L29.119738,56.1277231 L31.929134,58.9410072 L29.2358602,61.635769 Z M60.6162691,38.9317052 L40.3337168,18.629337 C40.0302761,18.3255998 39.6286075,18.1380984 39.2002879,18.1007505 L28.8284806,17.192588 C28.7747979,17.1883959 28.7214959,17.1868715 28.6678132,17.1868715 C27.8066052,17.1868715 27.0512397,17.7943457 26.8787697,18.6544896 L26.0472585,22.7814272 C25.5283255,25.3610966 23.0090447,27.0375578 20.4299894,26.5162123 C19.182342,26.264686 18.1056416,25.5413572 17.4005323,24.4799922 C16.6958038,23.4171029 16.4456651,22.1442271 16.6984689,20.8949796 L17.5284571,16.7668987 C18.7673478,10.6186039 24.7699142,6.62314602 30.916396,7.86324713 C30.9281986,7.86629594 30.9419048,7.86934474 30.9552303,7.87086914 L48.713933,11.0534396 L68.5906287,30.9495547 L60.6162691,38.9317052 Z M76.3274136,23.2071165 L71.1753948,28.3637877 L53.4848425,10.6559518 C53.1368566,10.3076259 52.9464924,9.84611316 52.9464924,9.35335018 C52.9464924,8.86211161 53.1368566,8.40059887 53.4848425,8.05227299 L57.3370541,4.19667898 C57.683517,3.8498775 58.1461022,3.65780284 58.6368613,3.65780284 C59.1276204,3.65780284 59.5886827,3.8498775 59.9366686,4.19667898 L76.3274136,20.6034377 C76.6738766,20.9502392 76.8657638,21.4132763 76.8657638,21.9045149 C76.8657638,22.3972779 76.6738766,22.8587906 76.3274136,23.2071165 Z" id="Fill-1" fill="#999999"></path>
                <path d="M20.904282,22.8622205 C20.904282,23.8728991 20.0864771,24.6918841 19.0764042,24.6918841 C18.068235,24.6918841 17.2489072,23.8728991 17.2489072,22.8622205 C17.2489072,21.8530663 18.068235,21.0340813 19.0764042,21.0340813 C20.0864771,21.0340813 20.904282,21.8530663 20.904282,22.8622205 Z" id="Fill-4" fill="#1046F1"></path>
            </g>
        </g>
    </g>
</svg>

<?xml version="1.0" encoding="utf-8"?>
<!-- Generator: Adobe Illustrator 16.0.0, SVG Export Plug-In . SVG Version: 6.00 Build 0)  -->
<!DOCTYPE svg PUBLIC "-//W3C//DTD SVG 1.1//EN" "http://www.w3.org/Graphics/SVG/1.1/DTD/svg11.dtd">
<svg version="1.1" id="Layer_1" xmlns="http://www.w3.org/2000/svg" xmlns:xlink="http://www.w3.org/1999/xlink" x="0px" y="0px"
	 width="81px" height="70px" viewBox="0 0 81 70" enable-background="new 0 0 81 70" xml:space="preserve">
<title>F8340169-7CB1-4D43-8372-1EF0F9BAB865</title>
<desc>Created with sketchtool.</desc>
<g id="_xD83D__xDCBB_-Desktop-Web">
	<g id="_x31_.1.Home-Page" transform="translate(-280.000000, -1679.000000)">
		<g id="Group-7" transform="translate(280.000000, 1679.000000)">
			<path id="Fill-1" fill="#1046F1" d="M78.912,18.018L62.521,1.611C61.483,0.572,60.104,0,58.637,0s-2.847,0.572-3.885,1.611
				L50.9,5.466c-0.592,0.593-1.015,1.291-1.281,2.034l-18.02-3.23c-0.001,0-0.003,0-0.005,0c-8.102-1.61-16.014,3.662-17.648,11.775
				l-0.832,4.127c-0.917,4.558,2.041,9.012,6.593,9.932c4.554,0.917,9.005-2.042,9.922-6.601l0.509-2.523l8.082,0.707l24.928,24.955
				c0.775,0.776,0.775,2.036,0,2.813c-0.773,0.774-2.033,0.775-2.809,0L50.094,39.198c-0.713-0.714-1.871-0.714-2.584,0
				s-0.713,1.872,0,2.586l10.246,10.257c0.375,0.375,0.582,0.874,0.582,1.405c0,0.532-0.207,1.03-0.582,1.405
				c-0.774,0.775-2.035,0.775-2.809,0L44.701,44.596c-0.713-0.714-1.872-0.714-2.584,0c-0.715,0.715-0.715,1.873,0,2.588
				l10.245,10.256c0.774,0.775,0.774,2.036,0,2.812c-0.375,0.375-0.875,0.582-1.403,0.582c-0.531,0-1.031-0.207-1.406-0.582
				L39.307,49.996c-0.714-0.715-1.871-0.715-2.584,0s-0.714,1.873,0,2.586l10.245,10.256c0.774,0.776,0.774,2.037,0,2.813
				c-0.772,0.774-2.034,0.775-2.808,0L3.12,24.571c-0.714-0.715-1.871-0.715-2.585,0c-0.714,0.714-0.714,1.873,0,2.587l9.998,10.007
				l-2.872,2.874c-0.94,0.941-1.459,2.193-1.459,3.524c0,1.332,0.519,2.584,1.459,3.524l0.937,0.938
				c0.822,0.823,1.881,1.321,3.023,1.435c0.113,1.144,0.611,2.203,1.434,3.025l0.937,0.939c0.843,0.844,1.918,1.32,3.022,1.431
				c0.111,1.145,0.611,2.206,1.435,3.029l0.937,0.938c0.822,0.822,1.881,1.322,3.021,1.434c0.113,1.145,0.613,2.204,1.434,3.027
				l0.938,0.938c0.97,0.973,2.246,1.457,3.52,1.457c1.275,0,2.549-0.484,3.521-1.457l2.872-2.874l6.883,6.89
				c1.065,1.065,2.482,1.654,3.989,1.654c1.506,0,2.924-0.589,3.988-1.654c1.01-1.011,1.582-2.34,1.641-3.758
				c1.419-0.059,2.744-0.631,3.754-1.643c1.041-1.041,1.582-2.392,1.639-3.758c1.365-0.057,2.715-0.6,3.755-1.641
				s1.583-2.391,1.638-3.76c1.367-0.057,2.716-0.598,3.755-1.639c2.2-2.203,2.2-5.785,0-7.986l-2.532-2.535l15.711-15.725
				C81.054,23.649,81.054,20.161,78.912,18.018z M10.246,44.501c-0.516-0.517-0.516-1.358,0-1.874l2.693-2.695l2.809,2.811
				l-2.693,2.697c-0.516,0.516-1.356,0.516-1.872,0L10.246,44.501z M15.64,49.9c-0.518-0.518-0.518-1.357,0-1.874l2.692-2.696
				l2.809,2.813l-2.691,2.695c-0.516,0.518-1.356,0.518-1.873,0L15.64,49.9z M21.032,55.299c-0.25-0.25-0.388-0.582-0.388-0.937
				c0-0.353,0.138-0.687,0.388-0.937l2.693-2.696l2.81,2.812l-2.693,2.697c-0.516,0.516-1.356,0.516-1.873,0L21.032,55.299z
				 M29.236,61.636c-0.516,0.519-1.356,0.517-1.873,0l-0.937-0.938c-0.516-0.516-0.516-1.357,0-1.873l2.693-2.696l2.81,2.813
				L29.236,61.636z M60.616,38.932L40.333,18.629c-0.303-0.304-0.705-0.491-1.133-0.529l-10.372-0.908
				c-0.054-0.004-0.107-0.005-0.161-0.005c-0.861,0-1.617,0.607-1.789,1.467l-0.832,4.127c-0.519,2.58-3.038,4.256-5.617,3.735
				c-1.248-0.251-2.325-0.975-3.03-2.036c-0.705-1.063-0.955-2.336-0.702-3.585l0.83-4.128c1.239-6.148,7.242-10.144,13.388-8.904
				c0.012,0.003,0.025,0.006,0.039,0.008l17.759,3.182L68.591,30.95L60.616,38.932z M76.328,23.207l-5.152,5.157L53.484,10.656
				c-0.348-0.348-0.538-0.81-0.538-1.302c0-0.491,0.19-0.953,0.538-1.301l3.853-3.855c0.347-0.347,0.81-0.539,1.3-0.539
				s0.952,0.192,1.3,0.539l16.392,16.407c0.346,0.347,0.537,0.81,0.537,1.301C76.865,22.397,76.674,22.859,76.328,23.207z"/>
			<path id="Fill-4" fill="#1046F1" d="M20.904,22.862c0,1.011-0.818,1.83-1.828,1.83c-1.008,0-1.827-0.819-1.827-1.83
				c0-1.009,0.819-1.828,1.827-1.828C20.086,21.034,20.904,21.853,20.904,22.862z"/>
		</g>
	</g>
</g>
</svg>
